X:1
T:Little Brown Church in the Vale
T:Little Brown Church in the Vale
T:William Savage Pitts
T:William Savage Pitts, 1857
T:Public Domain Courtesy of the Cyber Hymnal™
T:Public Domain Courtesy of the Cyber Hymnal™
C:William Savage Pitts
Z:Public Domain
Z:Courtesy of the Cyber Hymnal™
%%score ( 1 2 ) ( 3 4 )
L:1/8
Q:1/4=100
M:4/4
K:Bb
V:1 treble 
V:2 treble 
V:3 bass 
V:4 bass 
V:1
 [DF]>[DF] | [DF]2 [EG]>[DF] [DF][DF] [FB]>[Fc] | [Fd]4 [Fc]2 [Fc]2 | F2 [FA][FB] [Ac]2 [FB]>[EA] | %4
w: 1.~There’s a|church in the val- ley by the|wild- wood, No|love- li- er spot in the|
w: 2.~Ho- w|sweet on a cle- ar, Sab- bath|morn- ing, To|list to the clear ring- ing|
w: 3.~The- re,|close by the chu- rch in the|val- ley, Lies|one that I lo- ved so|
w: 4.~The- re,|close by the si- de of that|loved one, To|trees where the wild flow- ers|
w: 5.~From the|church in the val- ley by the|wild- wood, When|day fades a- way in- to|
 [DB]6 (BA) | [EG]2 [EG]>[EG] [GB]2 [FA]>[EG] | (F2 B2) [DF]2 [EA]>[EG] | %7
w: dale; No *|place is so dear to my|child- * hood, As the|
w: bell; Its *|to- nes so sweet- ly are|call- * ing, O- h,|
w: well; She *|sleeps, sweet- ly sleeps, ’neath the|wil- * low, D- is-|
w: bloom, When *|the fare- well hymn shall be|chan- * ted I shall|
w: night, I~would *|fain from this spot of my|child- * hood Wing my|
 [EF][EF] [EF]2 [EF]2 [EA]>[Ec] | [DB]4- [DB] ||"^Refrain" (FE) | D z D z D z D z | %11
w: lit- tle brown church in the|vale. *|||
w: come to the church in the|vale. *|||
w: turb not her rest in the|vale. *|~ *|~ ~ ~ ~|
w: rest by her side in the|tomb. *|||
w: way to the man- sions of|light. *|||
 [DF]2 [DG]>F [DF]2 [DB]>c | [Fd]4 [Ec]2 [Ec]2 | [EF]2 [EA]>[EB] [Ec]2 [EB]>[EA] | [DB]6 (BA) | %15
w: ||||
w: ||||
w: Come to the church in the|wild- wood, Oh,|come to the church in the|dale, No *|
w: ||||
w: ||||
 [EG]2 [EG]>[EG] [GB]2 [FA]>[EG] | (F2 B2) [DF]2 [EA]>[EG] | [EF][EF] [EF]2 [EF]2 [EA]>[Ec] | %18
w: |||
w: |||
w: spot is so dear to my|child- * hood, As the|lit- tle brown church in the|
w: |||
w: |||
 [DB]4 |] %19
w: |
w: |
w: vale.|
w: |
w: |
V:2
 x2 | x8 | x8 | x8 | x6 F2 | x8 | D4 x4 | x8 | x5 || x2 | x8 | x7/2 F/ x3 c/ x/ | x8 | x8 | x6 F2 | %15
 x8 | D4 x4 | x8 | x4 |] %19
V:3
 [B,,B,]>[B,,B,] | [B,,B,]2 [B,,B,]>[B,,B,] [B,,B,][B,,B,] [D,B,]>[F,A,] | %2
w: ~ ~|~ ~ ~ ~ ~ ~ ~|
 B,2 [D,B,]2 [F,A,]2 [F,A,]2 | [F,A,]2 [F,C][F,D] [F,E]2 [F,D]>[F,C] | [B,,B,]6 [D,B,]2 | %5
w: ~ ~ ~ ~|* ~ ~ ~ ~ ~|~ ~|
 [E,B,]2 [E,B,]>[E,B,] [E,E]2 [E,B,]>[E,B,] | (B,2 F,2) [B,,B,]2 [E,B,]>[E,B,] | %7
w: ~ ~ ~ ~ ~ ~|~ * ~ ~ ~|
 [F,A,][F,A,] [F,A,]2 [F,A,]2 [A,C]>[F,A,] | [B,,B,]4- [B,,B,] || (DC) | %10
w: ~ ~ ~ ~ ~ ~|~ *|O *|
 [B,,B,] z [B,,F,] z [B,,F,] z [B,,F,] z | [B,,B,]2 [B,,B,]2 [B,,B,]2- [B,,B,]>[B,,B,] | %12
w: come, come, come, come||
 [B,,B,]4 [D,F,A,]2 [F,A,]2 | [F,A,]2 [F,A,]>[F,A,] [F,C]2 [F,A,]>[F,A,] | [B,,B,]6 [D,B,]2 | %15
w: |||
 [E,B,]2 [E,B,]>[E,B,] [E,E]2 [E,B,]>[E,B,] | (B,2 F,2) [B,,B,]2 [E,B,]>[E,B,] | %17
w: ||
 [F,A,][F,A,] [F,A,]2 [F,A,]2 [F,C]>[F,A,] | [B,,B,]4 |] %19
w: ||
V:4
 x2 | x8 | B,2 x6 | x8 | x8 | x8 | B,,4 x4 | x8 | x5 || F,2 | x8 | x8 | x8 | x8 | x8 | x8 | %16
 B,,4 x4 | x8 | x4 |] %19

